WebBeautyBook/ClientApp/src/assets/svg/home.svg

<svg viewBox="0 0 24 24" fill="#1C274C" xmlns="http://www.w3.org/2000/svg">
    <path opacity="0.5" d="M2 12.2039C2 9.91549 2 8.77128 2.5192 7.82274C3.0384 6.87421 3.98695 6.28551 5.88403 5.10813L7.88403 3.86687C9.88939 2.62229 10.8921 2 12 2C13.1079 2 14.1106 2.62229 16.116 3.86687L18.116 5.10812C20.0131 6.28551 20.9616 6.87421 21.4808 7.82274C22 8.77128 22 9.91549 22 12.2039V13.725C22 17.6258 22 19.5763 20.8284 20.7881C19.6569 22 17.7712 22 14 22H10C6.22876 22 4.34315 22 3.17157 20.7881C2 19.5763 2 17.6258 2 13.725V12.2039Z"></path>
    <path d="M9 17.25C8.58579 17.25 8.25 17.5858 8.25 18C8.25 18.4142 8.58579 18.75 9 18.75H15C15.4142 18.75 15.75 18.4142 15.75 18C15.75 17.5858 15.4142 17.25 15 17.25H9Z"></path>
</svg>

<svg xmlns="http://www.w3.org/2000/svg" viewBox="0 0 24 24" fill="#1C274C" xmlns:v="https://vecta.io/nano"><path opacity=".5" d="M2 12.204c0-2.288 0-3.433.519-4.381s1.468-1.537 3.365-2.715l2-1.241C9.889 2.622 10.892 2 12 2s2.111.622 4.116 1.867l2 1.241c1.897 1.177 2.846 1.766 3.365 2.715S22 9.915 22 12.204v1.521c0 3.901 0 5.851-1.172 7.063S17.771 22 14 22h-4c-3.771 0-5.657 0-6.828-1.212S2 17.626 2 13.725v-1.521z"/><path d="M9 17.25a.75.75 0 1 0 0 1.5h6a.75.75 0 1 0 0-1.5H9z"/></svg>
